X:1
T:Violin Partita No. 1 in B Minor
T:Violin Partita No. 1 in B Minor
T:BWV 1002
T:Johann Sebastian Bach
C:Johann Sebastian Bach
%%score ( 1 2 3 4 )
L:1/8
Q:1/4=40
M:4/4
K:D
V:1 treble nm="Violin" snm="Vln."
V:2 treble 
V:3 treble 
V:4 treble 
V:1
"^Allemanda" f/ |: f>b Tg3/2f/4g/4 e3/2d/4c/4 d/>B,/=A,/>f/ | %2
 f3/2g/4f/4 e/>d/Tc/>B/ ^A/>G/F/>E/ D/>B/C/>c/ | %3
 d3/4B,/8C/8D/>E/ F/(D/4E/4F/=A/4G/4) A>A d/f/4e/<f/A/4 | %4
 B/ z/ z3/4 d/4 g3/4 z/4 z3/4 B/4 g3/4f/8e/8a/>g/ f/>D/G/>e/ | %5
 (d/<c/)(B/<A/) a/>G/F3/4G/8E/8 a3/2(3a/4g/4f/4 b/>a/Tg/>f/ | %6
 g/>e/B/>G/ E/>d/c/>B/ ^A/>g/f/>E/ =D/>(F/B/4d/4f/) | %7
 ^G/>B/e/>D/ (3(C/D/E/) (3(F/=G/B,/) e3/4f/8g/8f/>e/ (eTd/4)c/4d/ | %8
 c3/2F/4^G/4 (3(^A/B/c/) (3(d/e/f/) (3(=g/f/e/) (3(^a/b/c'/) f/>B/A/>e/ | %9
 (3(B,/E/G/) (3(^A/c/e/) (3(d/c/B/) ^g/>g/ (g3/2=a/4b/4) b/>g/a/>f/ | %10
 ^g3/4^e/8c/8 c'/>c'/ c'/>=e/^A/>e/ B,/>e/d/>f/ (3(b/c'/^a/) (3(b/d'/c'/) | %11
 d'/>^e/^G/>e/ C/>d'/c'/>b/ a3/4(3^g/8f/8e/8f/>b/ g>f |1 %12
 f3/2=e/4d/4 (3(e/d/c/) (3(d/B/^E/) (3(F/^A/c/)f- f/>=E/D/>C/ :|2 %13
 f3/2=e/4d/4 (3(e/d/c/) (3(d/B/^E/) (3(F/^A/c/)f- f>c |: %14
 c3/4d/8e/8d/>B/ ^A/>F/TE3/4D/8E/8 (3(D/F/B/) (3(D/C/B,/) ^A,/>c/F/>E/ | %15
 D3/4(B,/8C/8D/>)E/ (3(F/G/=A/) (3(B/=c/A/) ^D>F B/>B/^c/>^d/ | %16
 e3/4g/8f/8g/>B/ (3(=c/B/A/) (3(g/f/e/) (3(e/^d/^c/) (3(d/c/B/) b3/4(B/8c/8=d/4e/4=f/) | %17
 x4 =c'3/2 x/ x2 | %18
 a3/4g/8f/8b/>a/ Tg/>(f/g/4a/4f/) (3(g/e/B/) (3(G/E/B,/) (3(=D/G/B/) (3(=d/e/=f/) | %19
 e3/4(3d/8=c/8B/8c/>e/ (T^A3/2B/4A/4) (3(B/^c/^d/) (3(e/g/f/) (eTd/>)e/ | e3/2 x/ x2 x4 | %21
 (3(D/A/g/) (3(f/e/^a/) (3(b/f/e/) (3(d/c/e/) (3(^A/=G/F/) (3(E/A/g/) f/>D/C/>e/ | %22
 x4 =c3/4(a/8g/8 (3f/e/d/) (3(c/B/c/) a/>c/ | %23
 (3(^D/F/B/) (3(^d/f/a/) (3(=c'/b/a/) (3(g/a/f/) g/>f/e/>=d/ x2 | %24
 (3(^A/^c/g/) (3(f/A/E/) D3/4b/8=a/8g/>f/ (3(^e/f/^g/) f/>B/ (dTc/4)B/4c/ |1 %25
 B3/2d/4c/4 (3(d/B/d/) (3(f/b/^a/) b3 z/ c/ :|2 B3/2d/4c/4 (3(d/B/d/) (3(f/b/^a/) b3 z/ |] %27
[M:2/2][Q:1/4=60]"^Double" f/ | (B/d/)(f/b/) (g/e/)(c/e/) (^A/g/)(f/e/) (d/B/)(F/=A/) | %29
 (G/f/)(e/d/) (c/e/)(g/B/) (^A/c/)(F/E/) D/B/C/c/ | %30
 (d/F/B,/)C/ (D/E/)(F/G/) (A/D/)(F/A/) (d/e/)(f/A/) | %31
 (B/G/)(B/d/) (g/B/)(G/E/) (C/E/A/)g/ f/D/G/e/ | %32
 (c/A/)(c/e/) (a/=c/)(A/F/) (^D/F/B/)f/ (a/=c'/)(b/a/) | %33
 (g/b/)(g/e/) (B/d/)(^c/B/) (^A/g/)(f/E/) (=D/F/)(B/d/) | %34
 (^G/f/)(e/D/) (C/E/)(=G/B,/) (^A,/F/)(c/e/) (d/F/B,/)d/ | %35
 (c/f/)(c/^A/) (F/A/)(c/E/) (D/f/)(d/B/) (^G/B/)(e/A/) | %36
 (B/e/)(f/c/) (d/B/)(^g/B/) (^E/c/)(b/g/) (a/c/F/)a/ | %37
 (^g/c/)(^e/g/) (c'/=e/)(^A/e/) (B,/F/)(e/c/) (d/f/)(b/c'/) | %38
 (d'/^e/)(^G/e/) C/d'/(e/c'/) (b/a/)(^g/f/) (c/f/)(g/e/) | %39
 (f/c/)(^A/=e/) (d/^E/)(^G/B/) (A/F/)(A/c/) f3/2 :: c/ | %41
 (c/g/)(e/c/) (^A/F/)(c/E/) (D/F/)(B/D/) (C/B,/)(^A,/E/) | %42
 (D/B,/)(D/F/) (B/G/)(F/E/) (^D/F/)(=A/=c/) (B/A/)(f/A/) | %43
 (G/B/)(e/g/) (f/a/)(^d/e/) (B/e/)(d/f/) (b/f/)(d/A/) | %44
 (^G/B/)(e/^g/) (b/=d'/)(=c'/b/) (c'/a/)(e/=c/) (A/=g/)(f/e/) | %45
 (^d/f/)(a/=c'/) (b/a/)(d/a/) (g/b/)(g/e/) (B/g/)(d'/=f/) | %46
 (e/B/)(=c/e/) (^A/B/)(^D/E/) (G,/E/)(B/g/) (f/e/)(B/^d/) | %47
 (E/G/)(B/e/) (B/G/)(E/G/) (C/=A/)(e/G/) F/a/E/g/ | %48
 (D/g/)(f/e/) (d/f/)(^a/b/) (e/c/)(^A/c/) D/f/C/e/ | %49
 (B,/e/)(d/c/) (B/d/)(f/g/) (=c/A/)(F/A/) (D/F/)(A/c/) | %50
 (f/B/)(^D/F/) (B/^d/)(f/a/) (g/e/)(B/=d/) (=c/e/)(g/B/) | %51
 (^A/g/f/)E/ D/b/(^a/b/) (^e/f/)(A/B/) (F/d/)(c/A/) | %52
 B/(B,/D/F/) (B/d/)(f/^a/) (b/f/)(d/B/) B,3/2 :|[M:3/4][Q:1/4=160]"^Corrente" B | BB,DFBd | %55
 (cF^A,)EDC | B,DFBdf | (eAC)GFE | DFAdfa | (gBE)dcB | ^AgfE^D=A | ^Gfe=DCE | ^Ae(edc)d | %63
 (cF^A,)GFE | DFBdfb | (gBE)GBd | (cEA,)CEG | (Fda)ed=c | BGBdgb | (c'eG)eac' | d'afdAc' | %71
 D(d'c'b^ab) | (c'e^A)gfe | dfb^g=af | ^e^gbd'c'B | Acfac'=e | ^dfac'bA | ^GB^e^gbF | ^E^Gc^e^gb | %79
 (acF)=gf=e | (dFB,)=cBA | (GBd)g^ef | (B^E^G,)EBd | cA^GFC^E | (F^Ac)edB | (c^A F3) :: c | %87
 cfc^AFD | ^G,E^A,Fce | (dFB,)FBd | eA(^DAf)A | GEGBeg | ad(^Gdb)d | =ceafge | (^dfa)=c'bA | %95
 GbaFEg | (fB^D)AGF | Egf=D=Ce | (d^GB,)=fed | =cAce=fa | (^d^FA,)fdB | bgegB^d | (EFG)B^de | %103
 (^gB=D)Beg | aececA | FdB^Ged | cecAE=G | FagEDf | (eAC)BAG | FdcEDB | (CEG)BAG | F=CB,GAA, | %112
 (G,DB)d^ce | aGFdA,c | d(DCB,^A,B,) | ^A,CF^Ace | dfdB^GB | ^E^Gc^e^gb | ^ac'afc=e | ^d=c'bA^G=d | %120
 cba=GF=c | BagFEB | ^AgfE^D=A | ^GBdfeD | (CB,^A,)gfe | dfdBF^A | (B=AGFE^D | E^DE)^G,E=d | %128
 (cBA^GF^E | F^EF)^A,F=e | (^df=a)=c'ba | (gf^e)f(cd | =e)(^ABc)FA | B,DFBdf | b4 z :| %135
[M:3/4][Q:1/4=150]"^Double"[Q:1/4=150]"^Presto" B/ | BA/G/ F/E/D/C/ B,/D/C/B,/ | %137
 ^A,/C/D/E/ F/^G/^A/B/ c/d/e/c/ | d/B/=A/=G/ F/E/D/C/ B,/D/C/B,/ | C/E/F/G/ A/B/c/d/ e/f/g/e/ | %140
 f/d/c/B/ A/G/F/E/ D/F/E/D/ | E/G/A/B/ =c/d/e/f/ g/e/f/g/ | ^A/^c/d/e/ f/G/F/E/ ^D/=c/B/=A/ | %143
 ^G/B/^c/d/ e/F/E/D/ C/d/c/B/ | ^A/g/f/e/ d/f/^g/^a/ b/d/c/B/ | F/c/d/e/ f/^g/^a/b/ c'/d'/e'/c'/ | %146
 d'/b/=a/=g/ f/e/d/c/ B/A/^G/F/ | E/B/c/d/ e/f/^g/a/ b/c'/d'/b/ | c'/a/^g/f/ e/d/c/B/ A/=G/F/E/ | %149
 D/A/B/c/ d/e/f/g/ a/b/=c'/a/ | b/g/f/e/ d/=c/B/A/ G/F/E/D/ | ^C/E/F/G/ A/B/c/d/ e/f/g/e/ | %152
 f/a/b/c'/ d'/f/e/d/ A/e/d'/c'/ | d'/a/f/d'/ a/f/d/a/ f/d/c/B/ | ^A/g/f/e/ c'/b/^a/^g/ f/e/d/c/ | %155
 d/B/d/f/ b/c'/d'/c'/ b/=a/^g/f/ | ^e/c'/^g/e/ c/g/e/c/ B/d/c/B/ | A/c/f/^g/ a/b/c'/b/ a/g/f/=e/ | %158
 ^d/b/f/d/ B/f/d/B/ A/c/B/A/ | ^G/f/=d/B/ G/d/B/G/ F/A/G/F/ | ^E/^G/A/B/ c/^d/^e/f/ ^g/a/b/g/ | %161
 a/f/=e/=d/ c/B/A/^G/ F/E/D/C/ | B,/F/=G/A/ B/c/d/e/ f/g/a/f/ | g/b/g/d/ B/g/d/B/ G/d/B/G/ | %164
 ^E/B/^G/E/ C/^D/E/F/ G/A/B/G/ | A/F/A/c/ f/A/^G/F/ C/G/f/^e/ | f/F/^A/c/ =e/F/A/c/ d/F/B/d/ | %167
 c/B/^A/^G/ F/A/c/^e/ f3/2 :: c/ | c/F/^G/^A/ B/c/d/e/ f/^g/^a/f/ | b/f/e/d/ c/B/^A/^G/ F/E/D/C/ | %171
 D/B,/D/F/ B/D/F/B/ d/B/d/f/ | e/d/c/B/ A/G/F/E/ ^D/=c/B/A/ | G/E/G/B/ e/G/B/e/ g/e/g/b/ | %174
 a/g/f/e/ d/=c/B/A/ ^G/=f/e/d/ | =c/A/c/e/ a/b/=c'/b/ a/g/^f/e/ | ^d/B/d/f/ a/g/f/e/ d/^c/B/A/ | %177
 G/B/e/G/ F/A/=d/F/ E/G/=c/E/ | ^D/F/A/=c/ B/^c/^d/e/ f/g/a/f/ | g/B/E/B/ f/B/=D/B/ e/A/=C/A/ | %180
 d/^G/B,/=C/ D/E/F/G/ A/B/=c/d/ | e/=c/A/B/ c/d/e/f/ g/a/b/=c'/ | ^d/b/f/d/ B/f/d/B/ A/=c/B/A/ | %183
 G/B/^c/^d/ e/G/F/E/ B,/F/e/d/ | e/E/F/G/ A/B/c/^d/ e/f/g/a/ | b/c'/=d'/c'/ b/a/^g/f/ e/d/c/B/ | %186
 c/d/e/d/ c/B/A/^G/ F/E/D/C/ | D/E/F/E/ D/C/B,/A/ ^G/F/E/d/ | c/A/c/e/ =g/f/e/d/ c/B/A/G/ | %189
 F/A/d/F/ E/G/c/E/ D/F/B/D/ | C/E/G/B/ A/B/c/d/ e/f/g/e/ | f/A/D/A/ e/A/C/A/ d/G/B,/G/ | %192
 c/G/A,/B,/ C/D/E/F/ G/B/A/G/ | F/D/F/A/ =c/A/c/f/ a/d/f/a/ | b/=c'/b/a/ g/f/e/d/ ^c/B/A/G/ | %195
 F/A/B/c/ d/F/E/D/ A,/E/d/c/ | d/A/F/d/ A/F/D/A/ F/D/C/B,/ | ^A,/G/F/E/ c/B/^A/^G/ F/E/D/C/ | %198
 D/B,/D/F/ B/c/d/c/ B/=A/^G/F/ | ^E/C/E/^G/ c/G/c/^e/ ^g/d/c/B/ | ^A/f/c/A/ F/c/A/F/ =E/=G/F/E/ | %201
 ^D/f/^g/a/ b/c/B/A/ ^G/F/E/=D/ | C/e/f/=g/ a/B/A/G/ F/E/D/=C/ | B,/d/e/f/ g/A/G/F/ E/D/^C/B,/ | %204
 ^A,/c/d/e/ f/G/F/E/ ^D/C/B,/=A,/ | ^G,/B,/C/=D/ E/F/^G/^A/ B/c/d/B/ | %206
 c/f/e/d/ c/B/^A/^G/ F/E/D/C/ | D/B,/D/F/ B/d/f/B/ F/B/c/^A/ | B/G/B/d/ f/e/d/c/ B/=A/^G/F/ | %209
 (E/F/E/)d/ (b/a/b/)d/ (E/F/E/)d/ | c/A/c/e/ g/f/e/d/ c/B/^A/^G/ | %211
 (F/=G/F/)e/ (c'/b/c'/)e/ (F/G/F/)e/ | ^d/B/d/f/ a/g/f/e/ d/=c'/b/a/ | %213
 (g/f/)(^e/f/) (c/=d/)(^A/B/) (^E/F/)(A/B/) | =e/^a/c'/e/ d/b/c/B/ F/c/b/a/ | %215
 b/d'/b/f/ b/f/d/f/ d/B/f/d/ | B/d/B/F/ B/F/D/F/ B,3/2 :|[M:3/4][Q:1/4=60]"^Sarabande" f2 g2 fe | %218
 f3 e dc | BedcdB | ^A3 G F=E | B2 =A2 G/(F/G) | c3 d e2 | ededcB |1 f3 E DC :|2 f6 |: ^a2 a2 a2 | %227
 (Bfb)=a^gf | e2 f2 ^g2 | a3 =g fe | ^d=c'beda | (=c/B/c/A/) Ba g2 | gffee^d | e3 D CB, | e2 dcBA | %235
 d3 e f2 | b2 g2 f2 | e3 f g2 | (B^A/)g/ (fe)(dc) | d3 e f2 | f2 (ed)(cB) | ^A3 G FE | B2 c2 d2 | %243
 d x x2 x2 | c/(B/c) d/(c/d) e2 | e2 x2 x2 | b2 =a2 g2 | ^Agfe d2 | z c c3 B | B6 :| %250
[M:9/8][Q:1/4=90]"^Double" Bdf ged cag | fdc dAF Ddc | BGF Eed ^EcB | ^Afc A=GF =EDC | %254
 DFB CB=A B,AG | A,CE Gce ^Afe | dB=A Ged c^AB |1 F^Ac fgf edc :|2 fc^A F6 |: Fc^a acF EDC | %260
 DFB dfb =a^gf | e^Gd cAf dB^g | aec Ace =gfe | ^dA=c' beG Fda | =cAE ^DBa g^de | Agf BGe FA^d | %266
 eBG EGB efg | aed cBA GFE | FAc dfe fAD | G,DB cba gef | ecB cA^G AE=G | ^Ace gfe dec | %272
 dBc dfe f=AF | GBf ecd c^AB | ^AcB A^GF EDC | DFB B^Ac cBd | dB^G EGB d^gb | E=Gc cBd dce | %278
 ec^A FAc e^ac' | dbF c=aE BgD | CEG ^Ace gfe | ^ab^e fcd FB^A |1 BFD B,DF Bcd :|2 B,DF Bdf b3 |] %284
[M:2/2][Q:1/4=160]"^Tempo di Borea" f2 | b2 f2 b2 f2 | g2 gf e2 g2 | f2 e2 Td2 c2 | edcd B2 dc | %289
 d2 F2 G2 d2 | c2 cB c2 ae | c2 E2 F2 c2 | B2 BA B2 bg | e2 ge c2 ec | A2 Bc defg | a2 d2 e2 c2 | %296
 dc d2 b2 d2 | cB c2 a2 =c2 | B2 d2 ^cd e2 | G2 GF G2 eF | G2 eF G2 eF | G2 c2 a4- | a(d'c'b agba | %303
 gfed) A2 c2 | d6 :: f2 | e2 f2 g2 f2 | e2 ed e2 a2 | c2 d2 e2 d2 | c2 cB c2 ^d2 | e2 g2 z2 f2 | %311
 e^d e2 e2 gf | g2 b2 Tg2 fe | e6 g2 | c2 x2 c2 x2 | g2 fe x4 | c2 x2 c2 x2 | ^gf^e^d x4 | %318
 c'2 =e2 e2 c'2 | e2 x2 x4 | x2 d2 d2 b2 | c^d^ef ^gabg | ba^gf x4 | f2 F=G F=E^DC | %324
 B,2 x2 ^d2 x2 | a2 gf gEFG | A,2 x2 c2 x2 | g2 fe fdcB | ^A2 x2 =G2 x2 | (Fce)d egfe | %330
 dcBA G^ABc | dBc^A Fcf^g | ^abab c'd'c'd' | e'f^Af e'fAB | cdef ^g^abc' | d'^eBe d'eBc | %336
 d=edc BA^GF | ^Ed'c'b ^a=gf=e | (dc)(dB) F2 ^A2 | B2 dc B2 B,A, | G,2 dc B^A B2 | f2 B^A B2 (=cB | %342
 =AGFE) ^D=cBA | GFEF GAB^c | df(b^g) (^ec)d'c' | b^abc' f2 c'd | e2 c'd e2 c'd | e2 gf g4- | %348
 g(fed cB^Ac) | EGFE DCB,^A, | b2 f2 b2 f2 | g2 x2 x2 g2 | f2 e2 d2 ec | B6 :| %354
[M:2/2][Q:1/4=180]"^Double" B df | bfdB dfbf | gfed cB^Ag | fdce dBFc | (ed)(cd) BFBc | %359
 dBFD B,DGB | (cGA,)G ceae | cAEC A,CFA | (BFG,)F Bdfa | bgeg ecec | GABc defg | aFAd GeAc | %366
 (dAB,)A dbd^G | (c=GA,)G ca=cF | GBdF E^cde | (GFED C)efg | (EDCB, A,)gab | c'd'e'd' c'bag | %372
 fegf edcB | AGFd EdA,c | dDFA d :: f ad | e2 f2 g2 f2 | edcd eGFd | c2 d2 e2 d2 | cBAB cAF^d | %380
 eBgA, B,gf^d | (e^de)=c BAGF | (GBe)b (ag)(fe) | eBGB EBgd | ceAG FagE | Dgfe dfbd | ^Ec^gb acFa | %387
 ^gf^e^d cgab | c'=eBe ^Aec'e | Bedc df^ga | bdAd ^GdFd | ^E^Gc^d ^ef^ga | (ba)(^gf) (ca/g/f)^e | %393
 fBA^G FE^DC | B,^DFA =c^dfa | Eagf g=DCB, | A,CEG _Bceg | Dgfe (dc)e=B | (B^A)e=A (A^G)e=G | %399
 GFE^D EGFE | =DB,DF G^ABc | FdcB ^AcF^G | ^ABcd efgf | (ge^A)e (ge)(ge) | (ge^A)B cdef | %405
 (^g^eB)e gege | (^g^eB)c defg | ^a=ecd ef^ga | bc'd'b fbc'^a | bfec (dB^AB) | (G,dcB) (^AB)(eB) | %411
 (fdcB) (^AB)(FG) | =A(=cBA) ^D(AGF) | EB^cd ef^ge | BdcB ^EB^A^G | Fcd=e f^g^ab | %416
 (c'e^A)e c'ec'e |[K:treble] (c'e^A)B cdef | gagf edcB | ^aba^g fedc | dBdf bfdB | gfed cB^Ag | %422
 fdce dBF^A | B,4 z :| %424
V:2
 x/ |: B,3/2 x/ e3/2 x/ ^A,3/2 x/ x2 | G,3/2 x/ x2 x4 | x4 F3/2 x/ x x3/4 D/4 | %4
 G/B/4A/<G/F/4 E/>E/F/>G/ C/ x/ x x2 | x4 ^D3/4 x/4 x x2 | x8 | x4 ^A,3/4 x/4 x B, x | %8
 F3/2 x/ x2 x4 | x4 ^E3/2 x/ x F3/4 x/4 | c3/4 x/4 x x2 x4 | x4 FA/>B/ c2 |1 F3/2 x/ x2 x4 :|2 %13
 F3/2 x/ x2 x4 |: F3/4 x/4 x x2 x4 | x4 A,3/2 x/ x2 | G,3/4 x/4 x x2 x4 | %17
 (^G/e/b/=c'/4d'/4) d'/>c'/d'/>b/ A>B (3(=c/B/A/) (3(f/=g/a/) | ^d3/4 x/4 x x2 x4 | %19
 =C3/4 x/4 x x2 G,/ x/ x B, x | E>F (3(G/=A/B/) (3(c/d/e/) C/>E/A/>G/ F/>a/E/>g/ | x8 | %22
 B,3/4(3e/8d/8c/8d/>e/ (3f/(e/f/ (3g/=a/b/) A,3/2 x/ x2 | x4 E3/4 x/4 x (3(=c/e/d/) (3(c/^A/B/) | %24
 x4 x x3/4 =E/4 F2 |1 B,3/2 x/ x2 B,3 x :|2 B,3/2 x/ x2 B,3 x/ |][M:2/2] x/ | x8 | x8 | x8 | x8 | %32
 x8 | x8 | x8 | x8 | x8 | x8 | x8 | x15/2 :: x/ | x8 | x8 | x8 | x8 | x8 | x8 | x8 | x8 | x8 | x8 | %51
 x8 | x15/2 :|[M:3/4] x | x6 | x6 | x6 | x6 | x6 | x6 | x6 | x6 | x2 B, x x2 | x6 | x6 | x6 | x6 | %67
 x6 | x6 | x6 | x6 | x6 | x6 | x6 | x6 | x6 | x6 | x6 | x6 | x6 | x6 | x6 | x6 | x6 | x6 | x5 :: %86
 x | x6 | x6 | x6 | x6 | x6 | x6 | x6 | x6 | x6 | x6 | x6 | x6 | x6 | x6 | x6 | x6 | x6 | x6 | x6 | %106
 x6 | x6 | x6 | x6 | x6 | x6 | x6 | x6 | x6 | x6 | x6 | x6 | x6 | x6 | x6 | x6 | x6 | x6 | x6 | %125
 x6 | x6 | x6 | x6 | x6 | x6 | x6 | x6 | x6 | x5 :|[M:3/4] x/ | x6 | x6 | x6 | x6 | x6 | x6 | x6 | %143
 x6 | x6 | x6 | x6 | x6 | x6 | x6 | x6 | x6 | x6 | x6 | x6 | x6 | x6 | x6 | x6 | x6 | x6 | x6 | %162
 x6 | x6 | x6 | x6 | x6 | x11/2 :: x/ | x6 | x6 | x6 | x6 | x6 | x6 | x6 | x6 | x6 | x6 | x6 | x6 | %181
 x6 | x6 | x6 | x6 | x6 | x6 | x6 | x6 | x6 | x6 | x6 | x6 | x6 | x6 | x6 | x6 | x6 | x6 | x6 | %200
 x6 | x6 | x6 | x6 | x6 | x6 | x6 | x6 | x6 | x6 | x6 | x6 | x6 | x6 | x6 | x6 | x11/2 :| %217
[M:3/4] B,2 E2 A2 | D3 x x x | G2 E2 ^E2 | F3 x x x | D2 C2 B,2 | A,4 ^A,2 | B,2 G4 |1 F3 x x2 :|2 %225
 F6 |: F2 E2 F2 | D x x2 x2 | D2 C2 B,2 | A,3 x x2 | A3 G F2 | E2 ^D2 E2 | A,2 B,2 B,2 | E3 x x2 | %234
 A,2 z2 G2 | F2 E2 D2 | G,2 E2 D2 | A4 (ec) | C2 x2 x2 | B,4 A,2 | G,2 z2 E2 | F3 x x2 | %242
 D2 C2 B,2 | (E^G)Bd^gd | E2 D2 C2 | F2 x2 x2 | F2 E2 D2 | C x x2 B,2 | E2 F4 | B,6 :|[M:9/8] x9 | %251
 x9 | x9 | x9 | x9 | x9 | x9 |1 x9 :|2 x9 |: x9 | x9 | x9 | x9 | x9 | x9 | x9 | x9 | x9 | x9 | x9 | %270
 x9 | x9 | x9 | x9 | x9 | x9 | x9 | x9 | x9 | x9 | x9 | x9 |1 x9 :|2 x9 |][M:2/2] x2 | %285
 B,2 x2 B,2 x2 | ^A2 x2 x2 E2 | D2 E2 F4 | B,2 x2 x4 | x2 B,2 B,2 x2 | A,2 x2 x4 | x2 A,2 A,2 x2 | %292
 G,2 x2 x4 | x8 | G2 x2 x4 | x2 F2 G2 A2 | B,2 x2 x2 ^G2 | A,2 x2 x2 A,2 | G,2 F2 E2 D2 | %299
 C2 x2 x4 | C2 x2 B,2 x2 | A,2 x2 x4 | x8 | x4 A2 A,2 | D6 :: D2 | A2 z2 A2 z2 | A2 x2 x2 A,2 | %308
 A,2 z2 A,2 z2 | A,2 ED E2 F2 | G,2 z2 B,2 z2 | =C2 z2 G2 e^d | e2 G2 B4 | E2 F2 G2 E2 | %314
 A2 g2 A2 g2 | D4 f2 b2 | ^E2 b2 F2 a2 | c2 x2 c2 c'b | z2 B2 ^A2 z2 | B2 dc d2 b^a | %320
 b2 A2 ^G2 F2 | ^E2 x2 x4 | F2 x2 c2 ^e2 | x8 | x2 a2 B,2 a2 | E2 x2 x4 | x2 g2 A,2 g2 | D2 x2 x4 | %328
 C2 e2 B,2 e2 | ^A,2 x2 x4 | x8 | x8 | x8 | x8 | x8 | x8 | x8 | x8 | x8 | B,2 x2 x4 | x8 | %341
 D2 x2 x4 | x8 | x8 | x8 | x8 | F2 x2 ^G2 x2 | ^A2 x2 x4 | x8 | x8 | B,2 x2 B,2 x2 | ^A2 gf e2 A2 | %352
 B2 E2 F2 F2 | B,6 :|[M:2/2] x3 | x8 | x8 | x8 | x8 | x8 | x8 | x8 | x8 | x8 | x8 | x8 | x8 | x8 | %368
 x8 | x8 | x8 | x8 | x8 | x8 | x5 :: x2 f | cAdA eAdA | A2 x2 x4 | EA, FA, GA, FA, | A, x x2 x4 | %380
 x8 | x8 | x8 | x8 | x8 | x8 | x8 | x8 | x8 | x8 | x8 | x8 | x8 | x8 | x8 | x8 | x8 | x8 | x8 | %399
 x8 | x8 | x8 | x8 | x8 | x8 | x8 | x8 | x8 | x8 | x8 | x8 | x8 | x8 | x8 | x8 | x8 | x8 | %417
[K:treble] x8 | x8 | x8 | x8 | x8 | x8 | x5 :| %424
V:3
 x/ |: d3/2 x/ x2 f3/2 x/ x2 | B3/2 x/ x2 x4 | x8 | x2 B3/4 x/4 x A/ x/ x x2 | x4 B3/4 x/4 x x2 | %6
 x8 | x4 c3/4 x/4 x F x | x8 | x4 c3/2 x/ x c3/4 x/4 | ^E3/4 x/4 x x2 x4 | x4 c x x2 |1 %12
 c3/2 x/ x2 x4 :|2 c3/2 x/ x2 x4 |: x8 | x8 | B3/4 x/4 x x2 x4 | x4 e3/2 x/ x2 | x8 | %19
 =c3/4 x/4 x x2 E/ x/ x F x | x8 | x8 | x4 F3/2 x/ x2 | x4 B3/4 x/4 x x2 | x8 |1 %25
 F3/2 x/ x2 d3 x :|2 F3/2 x/ x2 d3 x/ |][M:2/2] x/ | x8 | x8 | x8 | x8 | x8 | x8 | x8 | x8 | x8 | %37
 x8 | x8 | x15/2 :: x/ | x8 | x8 | x8 | x8 | x8 | x8 | x8 | x8 | x8 | x8 | x8 | x15/2 :|[M:3/4] x | %54
 x6 | x6 | x6 | x6 | x6 | x6 | x6 | x6 | x2 F x x2 | x6 | x6 | x6 | x6 | x6 | x6 | x6 | x6 | x6 | %72
 x6 | x6 | x6 | x6 | x6 | x6 | x6 | x6 | x6 | x6 | x6 | x6 | x6 | x5 :: x | x6 | x6 | x6 | x6 | %91
 x6 | x6 | x6 | x6 | x6 | x6 | x6 | x6 | x6 | x6 | x6 | x6 | x6 | x6 | x6 | x6 | x6 | x6 | x6 | %110
 x6 | x6 | x6 | x6 | x6 | x6 | x6 | x6 | x6 | x6 | x6 | x6 | x6 | x6 | x6 | x6 | x6 | x6 | x6 | %129
 x6 | x6 | x6 | x6 | x6 | x5 :|[M:3/4] x/ | x6 | x6 | x6 | x6 | x6 | x6 | x6 | x6 | x6 | x6 | x6 | %147
 x6 | x6 | x6 | x6 | x6 | x6 | x6 | x6 | x6 | x6 | x6 | x6 | x6 | x6 | x6 | x6 | x6 | x6 | x6 | %166
 x6 | x11/2 :: x/ | x6 | x6 | x6 | x6 | x6 | x6 | x6 | x6 | x6 | x6 | x6 | x6 | x6 | x6 | x6 | x6 | %185
 x6 | x6 | x6 | x6 | x6 | x6 | x6 | x6 | x6 | x6 | x6 | x6 | x6 | x6 | x6 | x6 | x6 | x6 | x6 | %204
 x6 | x6 | x6 | x6 | x6 | x6 | x6 | x6 | x6 | x6 | x6 | x6 | x11/2 :|[M:3/4] d2 d2 c2 | d3 x x x | %219
 x6 | x6 | F2 E2 x2 | G4 F2 | F2 x2 x2 |1 c3 x x2 :|2 c6 |: c2 c2 c2 | x6 | B2 c2 e2 | c3 x x2 | %230
 x6 | x2 x2 B2 | =c2 B2 A2 | x6 | c2 x2 x2 | x2 x2 A2 | B2 c2 d2 | c3 d x2 | E2 x2 x2 | F4 c2 | %240
 B2 x2 x2 | x6 | F2 ^A2 B2 | x6 | x2 x2 B2 | (^ABc)e^ae | d2 c2 B2 | E x x2 F2 | x6 | F6 :| %250
[M:9/8] x9 | x9 | x9 | x9 | x9 | x9 | x9 |1 x9 :|2 x9 |: x9 | x9 | x9 | x9 | x9 | x9 | x9 | x9 | %267
 x9 | x9 | x9 | x9 | x9 | x9 | x9 | x9 | x9 | x9 | x9 | x9 | x9 | x9 | x9 |1 x9 :|2 x9 |] %284
[M:2/2] x2 | d2 x2 d2 x2 | c2 x2 x2 ^A2 | B2 c2 x4 | F2 x2 x4 | x8 | G2 x2 x4 | x8 | F2 x2 x4 | %293
 x8 | x8 | x8 | A2 x2 x2 x2 | =G2 x2 x2 F2 | G2 x2 x4 | x8 | x8 | x8 | x8 | x4 x2 G2 | F6 :: d2 | %306
 c2 d2 e2 d2 | c2 x2 x2 d2 | E2 F2 G2 F2 | E2 x2 x4 | B2 B2 z2 A2 | GF G2 x4 | x2 e2 x4 | %313
 x4 x2 B2 | x8 | A4 x4 | x8 | x8 | x8 | x8 | x2 x2 x2 d2 | x8 | c2 x2 x4 | x8 | x4 F2 x2 | %325
 B2 x2 x4 | x4 E2 x2 | A2 x2 x4 | x8 | x8 | x8 | x8 | x8 | x8 | x8 | x8 | x8 | x8 | x8 | F2 x2 x4 | %340
 x8 | B2 x2 x4 | x8 | x8 | x8 | x8 | x8 | x8 | x8 | x8 | d2 x2 d2 x2 | c2 x2 x2 e2 | d2 x2 x4 | %353
 F6 :|[M:2/2] x3 | x8 | x8 | x8 | x8 | x8 | x8 | x8 | x8 | x8 | x8 | x8 | x8 | x8 | x8 | x8 | x8 | %371
 x8 | x8 | x8 | x5 :: x3 | x8 | c2 x2 x4 | x8 | E x x2 x4 | x8 | x8 | x8 | x8 | x8 | x8 | x8 | x8 | %388
 x8 | x8 | x8 | x8 | x8 | x8 | x8 | x8 | x8 | x8 | x8 | x8 | x8 | x8 | x8 | x8 | x8 | x8 | x8 | %407
 x8 | x8 | x8 | x8 | x8 | x8 | x8 | x8 | x8 | x8 |[K:treble] x8 | x8 | x8 | x8 | x8 | x8 | x5 :| %424
V:4
 x/ |: F3/2 x/ x2 F3/2 x/ x2 | D3/2 x/ x2 x4 | x8 | x4 E/ x/ x x2 | x8 | x8 | x4 F3/4 x/4 x x x | %8
 x8 | x8 | C3/4 x/4 x x2 x4 | x8 |1 x8 :|2 x8 |: x8 | x8 | E3/4 x/4 x x2 x4 | x8 | x8 | %19
 G3/4 x/4 x x2 x4 | x8 | x8 | x8 | x8 | x8 |1 x4 F3 x :|2 x4 F3 x/ |][M:2/2] x/ | x8 | x8 | x8 | %31
 x8 | x8 | x8 | x8 | x8 | x8 | x8 | x8 | x15/2 :: x/ | x8 | x8 | x8 | x8 | x8 | x8 | x8 | x8 | x8 | %50
 x8 | x8 | x15/2 :|[M:3/4] x | x6 | x6 | x6 | x6 | x6 | x6 | x6 | x6 | x6 | x6 | x6 | x6 | x6 | %67
 x6 | x6 | x6 | x6 | x6 | x6 | x6 | x6 | x6 | x6 | x6 | x6 | x6 | x6 | x6 | x6 | x6 | x6 | x5 :: %86
 x | x6 | x6 | x6 | x6 | x6 | x6 | x6 | x6 | x6 | x6 | x6 | x6 | x6 | x6 | x6 | x6 | x6 | x6 | x6 | %106
 x6 | x6 | x6 | x6 | x6 | x6 | x6 | x6 | x6 | x6 | x6 | x6 | x6 | x6 | x6 | x6 | x6 | x6 | x6 | %125
 x6 | x6 | x6 | x6 | x6 | x6 | x6 | x6 | x6 | x5 :|[M:3/4] x/ | x6 | x6 | x6 | x6 | x6 | x6 | x6 | %143
 x6 | x6 | x6 | x6 | x6 | x6 | x6 | x6 | x6 | x6 | x6 | x6 | x6 | x6 | x6 | x6 | x6 | x6 | x6 | %162
 x6 | x6 | x6 | x6 | x6 | x11/2 :: x/ | x6 | x6 | x6 | x6 | x6 | x6 | x6 | x6 | x6 | x6 | x6 | x6 | %181
 x6 | x6 | x6 | x6 | x6 | x6 | x6 | x6 | x6 | x6 | x6 | x6 | x6 | x6 | x6 | x6 | x6 | x6 | x6 | %200
 x6 | x6 | x6 | x6 | x6 | x6 | x6 | x6 | x6 | x6 | x6 | x6 | x6 | x6 | x6 | x6 | x11/2 :| %217
[M:3/4] F2 x2 x2 | x6 | x6 | x6 | x6 | x6 | x6 |1 x6 :|2 x6 |: x6 | x6 | ^G2 A2 D2 | E3 x x2 | x6 | %231
 x6 | A2 G2 F2 | x6 | G2 x2 x2 | x6 | D2 x2 x2 | x6 | x6 | x2 x2 F2 | G2 x2 x2 | x6 | x6 | x6 | %244
 x2 x2 E2 | x6 | x6 | x6 | x6 | x6 :|[M:9/8] x9 | x9 | x9 | x9 | x9 | x9 | x9 |1 x9 :|2 x9 |: x9 | %260
 x9 | x9 | x9 | x9 | x9 | x9 | x9 | x9 | x9 | x9 | x9 | x9 | x9 | x9 | x9 | x9 | x9 | x9 | x9 | %279
 x9 | x9 | x9 |1 x9 :|2 x9 |][M:2/2] x2 | F2 x2 F2 x2 | x8 | x8 | x8 | x8 | x8 | x8 | x8 | x8 | %294
 x8 | x8 | x8 | x8 | x8 | x8 | x8 | x8 | x8 | x8 | x6 :: x2 | x8 | x2 x2 x2 F2 | x8 | x8 | %310
 G2 x2 x4 | x8 | x8 | x8 | x8 | x8 | x8 | x8 | x8 | x8 | x8 | x8 | x8 | x8 | x8 | x8 | x8 | x8 | %328
 x8 | x8 | x8 | x8 | x8 | x8 | x8 | x8 | x8 | x8 | x8 | x8 | x8 | x8 | x8 | x8 | x8 | x8 | x8 | %347
 x8 | x8 | x8 | F2 x2 F2 x2 | x8 | x8 | x6 :|[M:2/2] x3 | x8 | x8 | x8 | x8 | x8 | x8 | x8 | x8 | %363
 x8 | x8 | x8 | x8 | x8 | x8 | x8 | x8 | x8 | x8 | x8 | x5 :: x3 | x8 | x8 | x8 | x8 | x8 | x8 | %382
 x8 | x8 | x8 | x8 | x8 | x8 | x8 | x8 | x8 | x8 | x8 | x8 | x8 | x8 | x8 | x8 | x8 | x8 | x8 | %401
 x8 | x8 | x8 | x8 | x8 | x8 | x8 | x8 | x8 | x8 | x8 | x8 | x8 | x8 | x8 | x8 |[K:treble] x8 | %418
 x8 | x8 | x8 | x8 | x8 | x5 :| %424

